X:1
T:Andantino in C
T:Andantino in C
T:K. 15b (Anh. 109b No. 2)
T:W. A. Mozart
C:W. A. Mozart
%%score { ( 1 2 4 ) | ( 3 5 ) }
L:1/8
Q:1/4=60
M:2/4
K:C
V:1 treble nm="Piano" snm="Pno."
V:2 treble 
V:4 treble 
V:3 bass 
V:5 bass 
V:1
"^Andantino\n"!mf! [EG][Ec] TcB | [DGBd][Gf] Tfe | a/g/f/e/ d/c/B/A/ | Bd/B/ G2 | [EG][Ec] TcB | %5
 [DGBd][Gf] Tfe | a/g/f/e/ d/c/B/A/ | c/B/d/B/ c2 :: c/d/e/c/ B/b/^g | c/d/e/c/ B/b/^g | %10
 a/=g/f/e/{e} f2 | e/d/c/B/{B} c2 | a/g/f/e/ f/d/c/B/ | cTB A2 | a/g/f/e/ f/d/Tc/B/ | %15
 c/a/B/^g/ [ca]2 | Gc TcB | Bf Tfe | a/g/f/e/ d/c/B/A/ | c/B/d/B/ G2 | Gc TcB | Bf Tfe | %22
 a/g/f/e/ d/c/B/A/ | c/B/d/B/ c2 :| %24
V:2
 x2 ED | x2 G2 | x4 | x4 | x2 ED | x2 dc | x4 | x4 :: x4 | x4 | x4 | x4 | x4 | x4 | x4 | x4 | %16
 E x G x | G x G x | x4 | x4 | E x G x | G x G x | x4 | x4 :| %24
V:3
!mp! C,/D,/E,/F,/ G,G,, | G,,/A,,/B,,/G,,/ C,C,, | F,2 ^F,2 | G,2 G,,2 | C,/D,/E,/F,/ G,G,, | %5
 G,/A,/B,/G,/ CC, | F,2 ^F,2 | G,G,, C,C,, :: A,/B,/C/A,/ ^G,E, | A,/B,/C/A,/ ^G,E, | %10
 [C,A,]2 [D,A,]2 | [E,A,]2 [F,A,]2 | A,2 A,B, | A,^G, A,2 | A,2 A,B, | [E,E][E,D] [A,C]2 | %16
 C,/D,/E,/F,/ G,G,, | G,,/A,,/B,,/G,,/ C,C,, | F,2 ^F,2 | G,G,, G,,2 | C,/D,/E,/F,/ G,G,, | %21
 G,,/A,,/B,,/G,,/ C,C,, | F,2 ^F,2 | G,G,, C,C,, :| %24
V:4
 x4 | x4 | x4 | x4 | x4 | x2 G2 | x4 | x4 :: x4 | x4 | x4 | x4 | x4 | x4 | x4 | x4 | x4 | x4 | x4 | %19
 x4 | x4 | x4 | x4 | x4 :| %24
V:5
 x4 | x4 | x4 | x4 | x4 | x4 | x4 | x4 :: x4 | x4 | x4 | x4 | C,^C, D,2 | E,2 F,2 | C,^C, D,2 | %15
 x4 | x4 | x4 | x4 | x4 | x4 | x4 | x4 | x4 :| %24

